img/icons/solid/normal/email-2.svg

<?xml version="1.0" encoding="utf-8"?>
<!-- Generator: Adobe Illustrator 16.0.0, SVG Export Plug-In . SVG Version: 6.00 Build 0)  -->
<!DOCTYPE svg PUBLIC "-//W3C//DTD SVG 1.1//EN" "http://www.w3.org/Graphics/SVG/1.1/DTD/svg11.dtd">
<svg version="1.1" id="Filled_Icons" xmlns="http://www.w3.org/2000/svg" xmlns:xlink="http://www.w3.org/1999/xlink" x="0px"
	 y="0px" width="24px" height="24px" viewBox="0 0 24 24" enable-background="new 0 0 24 24" xml:space="preserve">
<path d="M22,4H2C0.897,4,0,4.897,0,6v12c0,1.103,0.897,2,2,2h20c1.103,0,2-0.897,2-2V6C24,4.897,23.103,4,22,4z M7.248,14.434
	l-3.5,2C3.67,16.479,3.584,16.5,3.5,16.5c-0.174,0-0.342-0.09-0.435-0.252c-0.137-0.239-0.054-0.545,0.186-0.682l3.5-2
	c0.24-0.137,0.545-0.054,0.682,0.186C7.571,13.992,7.488,14.297,7.248,14.434z M12,14.5c-0.094,0-0.189-0.026-0.271-0.08l-8.5-5.5
	C2.997,8.77,2.93,8.46,3.081,8.229c0.15-0.23,0.459-0.298,0.691-0.147L12,13.405l8.229-5.324c0.232-0.15,0.542-0.084,0.691,0.147
	c0.15,0.232,0.083,0.542-0.148,0.691l-8.5,5.5C12.189,14.474,12.095,14.5,12,14.5z M20.934,16.248
	C20.842,16.41,20.673,16.5,20.5,16.5c-0.084,0-0.169-0.021-0.248-0.065l-3.5-2c-0.24-0.137-0.323-0.442-0.186-0.682
	s0.443-0.322,0.682-0.186l3.5,2C20.988,15.703,21.071,16.009,20.934,16.248z"/>
</svg>

<svg xmlns="http://www.w3.org/2000/svg" viewBox="0 0 24 24"><path d="M22 4H2C.9 4 0 4.9 0 6v12c0 1.1.9 2 2 2h20c1.1 0 2-.9 2-2V6c0-1.1-.9-2-2-2zM7.25 14.43l-3.5 2c-.08.05-.17.07-.25.07-.17 0-.34-.1-.43-.25-.14-.24-.06-.55.18-.68l3.5-2c.24-.14.55-.06.68.18.14.24.06.55-.18.68zm4.75.07c-.1 0-.2-.03-.27-.08l-8.5-5.5c-.23-.15-.3-.46-.15-.7.15-.22.46-.3.7-.14L12 13.4l8.23-5.32c.23-.15.54-.08.7.15.14.23.07.54-.16.7l-8.5 5.5c-.08.04-.17.07-.27.07zm8.93 1.75c-.1.16-.26.25-.43.25-.08 0-.17-.02-.25-.07l-3.5-2c-.24-.13-.32-.44-.18-.68s.44-.32.68-.18l3.5 2c.24.13.32.44.18.68z"/></svg>
